X:1
T:Title
L:1/8
M:4/4
K:G
V:1 treble nm="Grand Piano"
V:1
 z4 z[Q:1/4=100] GGF | G2 GF G2 GF | AG F2- FCCD | ^D2 DD GFDF | ^D=D D2- DccB | c2 c2 c_BAB | %6
 c2 c2- cAAA | A2 A2 AGFG | A2 A2- A_BBA | AGGF F^DD=D | _BA G4 z2 |] %11

